docs/img/cluster-costs.svg

<?xml version="1.0" encoding="UTF-8" standalone="no"?>
<svg
   xmlns:dc="http://purl.org/dc/elements/1.1/"
   xmlns:cc="http://creativecommons.org/ns#"
   xmlns:rdf="http://www.w3.org/1999/02/22-rdf-syntax-ns#"
   xmlns:svg="http://www.w3.org/2000/svg"
   xmlns="http://www.w3.org/2000/svg"
   xmlns:sodipodi="http://sodipodi.sourceforge.net/DTD/sodipodi-0.dtd"
   xmlns:inkscape="http://www.inkscape.org/namespaces/inkscape"
   height="40"
   viewBox="0 0 60 40"
   width="60"
   version="1.1"
   id="svg36"
   sodipodi:docname="cluster-metering.svg"
   inkscape:version="1.0.1 (3bc2e813f5, 2020-09-07)">
  <sodipodi:namedview
     pagecolor="#ffffff"
     bordercolor="#666666"
     borderopacity="1"
     objecttolerance="10"
     gridtolerance="10"
     guidetolerance="10"
     inkscape:pageopacity="0"
     inkscape:pageshadow="2"
     inkscape:window-width="1920"
     inkscape:window-height="1016"
     id="namedview191"
     showgrid="false"
     inkscape:zoom="4.9625001"
     inkscape:cx="13.752388"
     inkscape:cy="10.353686"
     inkscape:window-x="0"
     inkscape:window-y="0"
     inkscape:window-maximized="1"
     inkscape:current-layer="g1042"
     inkscape:document-rotation="0" />
  <metadata
     id="metadata42">
    <rdf:RDF>
      <cc:Work
         rdf:about="">
        <dc:format>image/svg+xml</dc:format>
        <dc:type
           rdf:resource="http://purl.org/dc/dcmitype/StillImage" />
        <dc:title />
      </cc:Work>
    </rdf:RDF>
  </metadata>
  <defs
     id="defs40">
    <mask
       id="a-1"
       fill="#ffffff">
      <path
         d="M 0,0 H 313.30315 V 159.86486 H 0 Z"
         fill="#ffffff"
         fill-rule="evenodd"
         id="path2-9" />
    </mask>
    <mask
       id="mask865"
       fill="#ffffff">
      <path
         d="M 0,0 H 313.30315 V 159.86486 H 0 Z"
         fill="#ffffff"
         fill-rule="evenodd"
         id="path863" />
    </mask>
  </defs>
  <mask
     id="a"
     fill="#ffffff">
    <path
       d="M 0,0 H 313.30315 V 159.86486 H 0 Z"
       fill="#ffffff"
       fill-rule="evenodd"
       id="path2" />
  </mask>
  <mask
     id="b"
     fill="#ffffff">
    <path
       d="M 0,0 H 313.30315 V 159.86486 H 0 Z"
       fill="#ffffff"
       fill-rule="evenodd"
       id="path5" />
  </mask>
  <g
     id="g1042"
     style="display:inline">
    <g
       id="g994"
       transform="matrix(0.08667043,0,0,0.08667043,54.837532,-43.975856)"
       style="display:inline">
      <path
         id="path990"
         style="fill:#000e44;fill-opacity:1;fill-rule:evenodd;stroke:none;stroke-width:3.14747"
         d="m 56.695351,510.77372 -107.53235,84.40183 -79.398391,-66.27467 61.189259,82.84335 -54.627399,74.39502 72.836531,-52.98696 102.528945,91.04567 -81.03891,-107.53235 z" />
    </g>
    <circle
       style="opacity:1;fill:#ababf7;fill-opacity:1;stroke:none;stroke-width:0.308165;stroke-miterlimit:2.5;stroke-opacity:1;stop-color:#000000"
       id="path912"
       cx="16.627409"
       cy="16.633268"
       r="16.433828" />
    <g
       fill="none"
       fill-rule="evenodd"
       transform="matrix(0.15069337,0,0,0.15069337,-6.1976669,-20.880758)"
       id="g1008">
      <g
         transform="matrix(0.92863152,0,0,-0.92863152,9.2718211,454.1644)"
         id="g1006">
        <g
           fill="#0f1689"
           mask="url(#a-1)"
           id="g1002"
           style="fill:#6f0f0c;fill-opacity:1"
           transform="matrix(0.94489362,0,0,0.94489362,8.6962507,2.7018401)">
          <path
             d="m 203.46068,95.687543 c 6.93631,0 12.5593,-14.80922 12.5593,-33.077318 0,-18.268097 -5.62299,-33.077317 -12.5593,-33.077317 -6.93631,0 -12.55931,14.80922 -12.55931,33.077317 0,18.268098 5.62299,33.077318 12.55931,33.077318 z"
             transform="rotate(35,137.93117,151.55002)"
             id="path996"
             style="fill:#0f0c6f;fill-opacity:1" />
          <path
             d="m 30.142322,95.687543 c 6.936311,0 12.559301,-14.80922 12.559301,-33.077318 0,-18.268097 -5.62299,-33.077317 -12.559301,-33.077317 -6.93631,0 -12.559301,14.80922 -12.559301,33.077317 0,18.268098 5.622991,33.077318 12.559301,33.077318 z"
             transform="matrix(-0.81915204,0.57357644,0.57357644,0.81915204,58.084611,47.704768)"
             id="path998"
             style="fill:#0f0c6f;fill-opacity:1" />
          <path
             d="m 116.73282,66.275268 c 6.93631,0 12.5593,-14.80922 12.5593,-33.077318 0,-18.268097 -5.62299,-33.07731673 -12.55931,-33.07731673 -6.93631,0 -12.5593,14.80921973 -12.5593,33.07731673 0,18.268098 5.62299,33.077318 12.55931,33.077318 z"
             transform="matrix(-1,0,0,1,272.62852,53.670762)"
             id="path1000"
             style="fill:#0f0c6f;fill-opacity:1" />
        </g>
        <path
           d="m 251.46701,173.09985 c -20.23008,-33.60997 -56.88957,-56.06791 -98.75578,-56.06791 -40.7208,0 -76.515877,21.2459 -97.058696,53.33459"
           mask="url(#a-1)"
           stroke="#0f1689"
           stroke-width="20"
           id="path1004"
           style="stroke:#0f0c6f;stroke-opacity:1"
           transform="matrix(0.94489362,0,0,0.94489362,8.6962507,2.7018401)" />
      </g>
    </g>
    <g
       id="g1480" />
    <g
       id="g26"
       transform="matrix(0.03653614,0,0,-0.03653614,-34.467343,26.918953)" />
    <g
       id="g28"
       transform="matrix(0.03653614,0,0,-0.03653614,-34.467343,26.918953)" />
    <g
       id="g30"
       transform="matrix(0.03653614,0,0,-0.03653614,-34.467343,26.918953)" />
    <g
       id="g32"
       transform="matrix(0.03653614,0,0,-0.03653614,-34.467343,26.918953)" />
    <g
       id="g34"
       transform="matrix(0.03653614,0,0,-0.03653614,-34.467343,26.918953)" />
    <g
       id="g36"
       transform="matrix(0.03653614,0,0,-0.03653614,-34.467343,26.918953)" />
    <g
       id="g38"
       transform="matrix(0.03653614,0,0,-0.03653614,-34.467343,26.918953)" />
    <g
       id="g40"
       transform="matrix(0.03653614,0,0,-0.03653614,-34.467343,26.918953)" />
    <g
       id="g42"
       transform="matrix(0.03653614,0,0,-0.03653614,-34.467343,26.918953)" />
    <g
       id="g44"
       transform="matrix(0.03653614,0,0,-0.03653614,-34.467343,26.918953)" />
    <g
       id="g46"
       transform="matrix(0.03653614,0,0,-0.03653614,-34.467343,26.918953)" />
    <g
       id="g48"
       transform="matrix(0.03653614,0,0,-0.03653614,-34.467343,26.918953)" />
    <g
       id="g50"
       transform="matrix(0.03653614,0,0,-0.03653614,-34.467343,26.918953)" />
    <g
       id="g52"
       transform="matrix(0.03653614,0,0,-0.03653614,-34.467343,26.918953)" />
    <g
       id="g54"
       transform="matrix(0.03653614,0,0,-0.03653614,-34.467343,26.918953)" />
    <g
       id="g1700"
       transform="translate(52.705292)">
      <path
         class="b1a4fc53-aae5-4eb9-9b7b-a01bc1a54fac"
         d="m -35.834422,4.3092514 8.942005,5.162577 V 19.797253 l -8.942005,5.162577 -8.941903,-5.162577 V 9.4718284 l 8.942005,-5.162577 m 0,-1.2126059 -0.525068,0.3031244 -8.942011,5.1626311 -0.525075,0.3031244 V 20.403394 l 0.525075,0.30313 8.942011,5.162631 0.525068,0.303124 0.525074,-0.303124 8.942011,-5.162631 0.525075,-0.30313 V 8.8655254 L -26.367235,8.562401 -35.309246,3.3997699 Z"
         id="path933"
         style="fill:#0f0c6f;fill-opacity:1;stroke-width:0.0525074" />
      <polygon
         class="b1a4fc53-aae5-4eb9-9b7b-a01bc1a54fac"
         points="354.167,513.242 226.768,439.688 226.768,295.224 354.167,368.778 "
         id="polygon935"
         style="fill:#15119c;fill-opacity:1"
         transform="matrix(0.05250739,0,0,0.05250739,-55.269034,-4.2983895)" />
      <polygon
         class="a7859bd4-b053-4c5f-990d-c4f71d480e38"
         points="386.017,513.242 513.416,439.688 513.416,295.224 386.017,368.778 "
         id="polygon937"
         style="fill:#1b16cc;fill-opacity:1"
         transform="matrix(0.05250739,0,0,0.05250739,-55.269034,-4.2983895)" />
      <polygon
         class="b1a4fc53-aae5-4eb9-9b7b-a01bc1a54fac"
         points="242.693,267.972 370.092,194.418 497.491,267.972 370.092,341.526 "
         id="polygon939"
         style="fill:#0f0c6f;fill-opacity:1"
         transform="matrix(0.05250739,0,0,0.05250739,-55.269034,-4.2983895)" />
      <polygon
         class="b7f020c8-21d1-45ef-a459-72a5a42a922e"
         points="286.488,269.134 293.304,264.732 373.901,311.265 367.085,315.667 "
         id="polygon941"
         style="fill:#ababf7;fill-opacity:1"
         transform="matrix(0.05250739,0,0,0.05250739,-55.269034,-4.2983895)" />
      <polygon
         class="b7f020c8-21d1-45ef-a459-72a5a42a922e"
         points="300.225,269.134 345.792,242.074 360.581,250.699 315.014,277.758 "
         id="polygon943"
         style="fill:#ababf7;fill-opacity:1"
         transform="matrix(0.05250739,0,0,0.05250739,-55.269034,-4.2983895)" />
      <polygon
         class="b7f020c8-21d1-45ef-a459-72a5a42a922e"
         points="323.008,282.16 398.563,235.866 413.352,244.49 337.798,290.785 "
         id="polygon945"
         style="fill:#ababf7;fill-opacity:1"
         transform="matrix(0.05250739,0,0,0.05250739,-55.269034,-4.2983895)" />
      <polygon
         class="b7f020c8-21d1-45ef-a459-72a5a42a922e"
         points="345.792,295.187 406.84,259.347 421.63,267.972 360.581,303.811 "
         id="polygon947"
         style="fill:#ababf7;fill-opacity:1"
         transform="matrix(0.05250739,0,0,0.05250739,-55.269034,-4.2983895)" />
    </g>
  </g>
  <g
     transform="matrix(0.95879878,0,0,0.95879878,-871.34292,-378.35028)"
     id="g893" />
</svg>

<?xml version="1.0" encoding="UTF-8"?>
<svg width="40" height="40" version="1.1" viewBox="0 0 40 40" xmlns="http://www.w3.org/2000/svg" xmlns:cc="http://creativecommons.org/ns#" xmlns:dc="http://purl.org/dc/elements/1.1/" xmlns:rdf="http://www.w3.org/1999/02/22-rdf-syntax-ns#"><metadata><rdf:RDF><cc:Work rdf:about=""><dc:format>image/svg+xml</dc:format><dc:type rdf:resource="http://purl.org/dc/dcmitype/StillImage"/><dc:title/></cc:Work></rdf:RDF></metadata><defs><mask id="c" fill="#ffffff"><path d="m0 0h313.3v159.86h-313.3z" fill="#fff" fill-rule="evenodd"/></mask></defs><mask id="a" fill="#ffffff"><path d="m0 0h313.3v159.86h-313.3z" fill="#fff" fill-rule="evenodd"/></mask><mask id="b" fill="#ffffff"><path d="m0 0h313.3v159.86h-313.3z" fill="#fff" fill-rule="evenodd"/></mask><g><g transform="translate(.39981 .49331)"><g transform="matrix(.49527 0 0 .49527 5.0758 3.2126)"><g transform="matrix(1.7758,0,0,1.7758,-164.24,-70.425)"><g transform="translate(96.564,87.836)" fill="#66ff9a" stroke-width="3.24"><polygon class="st0" transform="matrix(.72255 0 0 .7031 -28.717 -125.97)" points="78.4 118.6 78.4 144.9 55.7 158 32.9 144.9 32.9 118.6 55.7 105.5" fill="#ababf7"/></g><g transform="matrix(.15831 0 0 .15831 83.649 18.463)" fill="#005e20" fill-rule="evenodd"><g transform="matrix(1.0777,0,0,-1.0777,-10.799,451.79)"><g transform="matrix(.94489 0 0 .94489 8.6963 2.7018)" fill="#0f0c6f" mask="url(#c)"><path transform="rotate(35,137.93,151.55)" d="m203.46 95.688c6.9363 0 12.559-14.809 12.559-33.077s-5.623-33.077-12.559-33.077-12.559 14.809-12.559 33.077 5.623 33.077 12.559 33.077z"/><path transform="matrix(-.81915 .57358 .57358 .81915 58.085 47.705)" d="m30.142 95.688c6.9363 0 12.559-14.809 12.559-33.077s-5.623-33.077-12.559-33.077c-6.9363 0-12.559 14.809-12.559 33.077s5.623 33.077 12.559 33.077z"/><path d="m153.24 119.95c-6.9363 0-12.559-14.809-12.559-33.077s5.623-33.077 12.559-33.077c6.9363 0 12.559 14.809 12.559 33.077s-5.623 33.077-12.559 33.077z"/></g><path transform="matrix(.94489 0 0 .94489 8.6963 2.7018)" d="m251.47 173.1c-20.23-33.61-56.89-56.068-98.756-56.068-40.721 0-76.516 21.246-97.059 53.335" fill="none" mask="url(#c)" stroke="#0f0c6f" stroke-width="19.999"/></g></g></g></g></g><g transform="translate(54.831 1.0617)"><path class="b1a4fc53-aae5-4eb9-9b7b-a01bc1a54fac" d="m-35.834 4.3093 8.942 5.1626v10.325l-8.942 5.1626-8.9419-5.1626v-10.325l8.942-5.1626m0-1.2126-9.4671 5.4658-0.52508 0.30312v11.538l0.52508 0.30313 9.4671 5.4658 9.4671-5.4658 0.52508-0.30313v-11.538l-0.52508-0.30312-8.942-5.1626z" fill="#0f0c6f" stroke-width=".052507"/><polygon class="b1a4fc53-aae5-4eb9-9b7b-a01bc1a54fac" transform="matrix(.052507 0 0 .052507 -55.269 -4.2984)" points="226.77 295.22 354.17 368.78 354.17 513.24 226.77 439.69" fill="#15119c"/><polygon class="a7859bd4-b053-4c5f-990d-c4f71d480e38" transform="matrix(.052507 0 0 .052507 -55.269 -4.2984)" points="513.42 295.22 386.02 368.78 386.02 513.24 513.42 439.69" fill="#1b16cc"/><polygon class="b1a4fc53-aae5-4eb9-9b7b-a01bc1a54fac" transform="matrix(.052507 0 0 .052507 -55.269 -4.2984)" points="497.49 267.97 370.09 341.53 242.69 267.97 370.09 194.42" fill="#0f0c6f"/><g fill="#ababf7"><polygon class="b7f020c8-21d1-45ef-a459-72a5a42a922e" transform="matrix(.052507 0 0 .052507 -55.269 -4.2984)" points="373.9 311.26 367.08 315.67 286.49 269.13 293.3 264.73"/><polygon class="b7f020c8-21d1-45ef-a459-72a5a42a922e" transform="matrix(.052507 0 0 .052507 -55.269 -4.2984)" points="360.58 250.7 315.01 277.76 300.22 269.13 345.79 242.07"/><polygon class="b7f020c8-21d1-45ef-a459-72a5a42a922e" transform="matrix(.052507 0 0 .052507 -55.269 -4.2984)" points="413.35 244.49 337.8 290.78 323.01 282.16 398.56 235.87"/><polygon class="b7f020c8-21d1-45ef-a459-72a5a42a922e" transform="matrix(.052507 0 0 .052507 -55.269 -4.2984)" points="421.63 267.97 360.58 303.81 345.79 295.19 406.84 259.35"/></g></g></g></svg>
